;Generated with Cura_SteamEngine 1.0
M140 S70.000000
M109 T0 S220.000000
T0
M190 S70.000000
;Sliced at: Fri 17-04-2015 19:39:42
;Basic settings: Layer height: 0.2 Walls: 0.8 Fill: 20
;Print time: #P_TIME#
;Filament used: #F_AMNT#m #F_WGHT#g
;Filament cost: #F_COST#
G29
G1 Y169 F8000
G92 E0
G1 E20 F300
G92 E0
;Put printing message on LCD screen
M117 Printing...

;total_layers=176
;LAYER:0
M107
G0 F3600 X55.79 Y72.17 Z0.30
;TYPE:SKIRT
G1 F1200 X56.09 Y71.95 E0.01825
G1 X56.66 Y71.63 E0.05114
G1 X57.08 Y71.47 E0.07358
G1 X57.92 Y71.27 E0.11660
G1 X58.21 Y71.23 E0.13136
G1 X58.53 Y71.21 E0.14749
G1 X58.67 Y71.21 E0.15458
G1 X59.03 Y71.22 E0.17215
G1 X59.15 Y71.23 E0.17825
G1 X59.56 Y71.28 E0.19870
G1 X59.80 Y71.33 E0.21131
G1 X60.65 Y71.57 E0.25490
G1 X60.91 Y71.67 E0.26925
G1 X62.24 Y72.32 E0.34270
G1 X62.45 Y72.45 E0.35538
G1 X63.50 Y73.18 E0.41905
G1 X63.55 Y73.22 E0.42219
G1 X63.73 Y73.35 E0.43330
G1 X63.83 Y73.44 E0.44017
G1 X65.14 Y74.63 E0.52832
G1 X65.18 Y74.67 E0.53122
G1 X65.49 Y74.97 E0.55288
G1 X65.31 Y73.88 E0.60804
G1 X65.30 Y73.75 E0.61458
G1 X65.20 Y72.54 E0.67515
G1 X65.19 Y72.44 E0.68025
G1 X65.18 Y71.70 E0.71692
G1 X65.18 Y71.57 E0.72386
G1 X65.40 Y68.42 E0.88145
G1 X65.42 Y68.26 E0.88908
G1 X65.80 Y65.97 E1.00504
G1 X65.84 Y65.80 E1.01394
G1 X66.19 Y64.57 E1.07732
G1 X66.24 Y64.41 E1.08614
G1 X66.84 Y62.94 E1.16528
G1 X66.92 Y62.78 E1.17410
G1 X67.51 Y61.69 E1.23576
G1 X67.60 Y61.54 E1.24450
G1 X68.03 Y60.93 E1.28182
G1 X68.18 Y60.74 E1.29384
G1 X68.72 Y60.17 E1.33305
G1 X68.93 Y59.98 E1.34697
G1 X69.42 Y59.61 E1.37800
G1 X69.65 Y59.47 E1.39117
G1 X70.10 Y59.24 E1.41666
G1 X70.45 Y59.11 E1.43508
G1 X71.01 Y58.97 E1.46383
G1 X71.25 Y58.93 E1.47583
G1 X71.54 Y58.90 E1.49041
G1 X71.80 Y58.90 E1.50339
G1 X72.34 Y58.93 E1.53044
G1 X72.68 Y59.00 E1.54798
G1 X73.14 Y59.13 E1.57191
G1 X73.39 Y59.23 E1.58496
G1 X73.79 Y59.42 E1.60741
G1 X73.99 Y59.54 E1.61892
G1 X74.39 Y59.81 E1.64299
G1 X74.63 Y60.00 E1.65816
G1 X75.15 Y60.53 E1.69530
G1 X75.36 Y60.79 E1.71194
G1 X75.80 Y61.45 E1.75158
G1 X75.92 Y61.68 E1.76447
G1 X76.36 Y62.66 E1.81796
G1 X76.44 Y62.87 E1.82942
G1 X76.74 Y63.95 E1.88512
G1 X76.78 Y64.13 E1.89457
G1 X76.95 Y65.26 E1.95163
G1 X76.97 Y65.40 E1.95861
G1 X77.05 Y66.53 E2.01472
G1 X77.05 Y66.62 E2.01951
G1 X77.06 Y67.42 E2.05943
G1 X77.06 Y67.46 E2.06122
G1 X77.05 Y67.74 E2.07539
G1 X77.61 Y66.97 E2.12274
G1 X77.66 Y66.91 E2.12644
G1 X78.07 Y66.39 E2.15978
G1 X78.16 Y66.29 E2.16646
G1 X79.44 Y64.93 E2.25942
G1 X79.56 Y64.82 E2.26779
G1 X81.50 Y63.15 E2.39568
G1 X81.58 Y63.08 E2.40086
G1 X82.73 Y62.22 E2.47232
G1 X82.82 Y62.16 E2.47784
G1 X84.11 Y61.31 E2.55498
G1 X84.26 Y61.23 E2.56327
G1 X85.53 Y60.58 E2.63447
G1 X85.68 Y60.51 E2.64253
G1 X86.63 Y60.14 E2.69377
G1 X86.80 Y60.09 E2.70270
G1 X88.40 Y59.66 E2.78529
G1 X88.63 Y59.62 E2.79671
G1 X89.13 Y59.56 E2.82213
G1 X89.27 Y59.55 E2.82893
G1 X89.73 Y59.53 E2.85214
G1 X90.01 Y59.55 E2.86608
G1 X90.74 Y59.65 E2.90248
G1 X91.05 Y59.73 E2.91862
G1 X91.53 Y59.91 E2.94428
G1 X91.79 Y60.02 E2.95825
G1 X92.18 Y60.25 E2.98084
G1 X92.39 Y60.39 E2.99327
G1 X92.73 Y60.66 E3.01506
G1 X92.94 Y60.86 E3.02953
G1 X93.25 Y61.22 E3.05308
G1 X93.44 Y61.50 E3.07000
G1 X93.70 Y61.98 E3.09715
G1 X93.83 Y62.29 E3.11398
G1 X93.97 Y62.74 E3.13769
G1 X94.01 Y62.88 E3.14510
G1 X94.06 Y63.18 E3.16001
G1 X94.09 Y63.42 E3.17242
G1 X94.12 Y63.92 E3.19739
G1 X94.11 Y64.09 E3.20567
G1 X94.08 Y64.60 E3.23121
G1 X94.05 Y64.85 E3.24380
G1 X93.92 Y65.45 E3.27435
G1 X93.86 Y65.64 E3.28439
G1 X93.59 Y66.41 E3.32518
G1 X93.48 Y66.65 E3.33827
G1 X92.70 Y68.06 E3.41858
G1 X92.55 Y68.28 E3.43178
G1 X91.49 Y69.61 E3.51667
G1 X91.39 Y69.72 E3.52416
G1 X90.33 Y70.83 E3.60055
G1 X91.99 Y70.57 E3.68459
G1 X92.15 Y70.56 E3.69256
G1 X93.14 Y70.50 E3.74197
G1 X93.22 Y70.50 E3.74576
G1 X93.82 Y70.50 E3.77569
G1 X93.92 Y70.50 E3.78059
G1 X95.81 Y70.61 E3.87544
G1 X95.92 Y70.62 E3.88064
G1 X98.31 Y70.92 E4.00074
G1 X98.45 Y70.94 E4.00798
G1 X99.94 Y71.27 E4.08416
G1 X100.12 Y71.31 E4.09317
G1 X101.56 Y71.80 E4.16896
G1 X101.74 Y71.88 E4.17884
G1 X103.17 Y72.57 E4.25828
G1 X103.32 Y72.65 E4.26694
G1 X104.02 Y73.09 E4.30796
G1 X104.18 Y73.20 E4.31790
G1 X104.86 Y73.76 E4.36149
G1 X105.02 Y73.90 E4.37229
G1 X105.38 Y74.29 E4.39880
G1 X105.54 Y74.49 E4.41148
G1 X105.79 Y74.87 E4.43411
G1 X105.91 Y75.06 E4.44525
G1 X106.10 Y75.45 E4.46700
G1 X106.20 Y75.71 E4.48083
G1 X106.35 Y76.24 E4.50840
G1 X106.41 Y76.61 E4.52701
G1 X106.43 Y76.93 E4.54290
G1 X106.42 Y77.11 E4.55178
G1 X106.38 Y77.71 E4.58207
G1 X106.31 Y78.11 E4.60254
G1 X106.14 Y78.62 E4.62898
G1 X106.00 Y78.94 E4.64638
G1 X105.67 Y79.48 E4.67781
G1 X105.51 Y79.70 E4.69147
G1 X105.21 Y80.05 E4.71458
G1 X105.07 Y80.20 E4.72491
G1 X104.73 Y80.50 E4.74724
G1 X104.61 Y80.59 E4.75497
G1 X104.16 Y80.93 E4.78319
G1 X103.94 Y81.07 E4.79613
G1 X103.03 Y81.53 E4.84687
G1 X102.77 Y81.64 E4.86120
G1 X101.44 Y82.04 E4.93037
G1 X101.21 Y82.09 E4.94234
G1 X99.70 Y82.31 E5.01811
G1 X99.54 Y82.33 E5.02633
G1 X98.38 Y82.38 E5.08440
G1 X98.29 Y82.38 E5.08844
G1 X97.58 Y82.37 E5.12382
G1 X98.43 Y82.99 E5.17626
G1 X98.51 Y83.05 E5.18102
G1 X99.11 Y83.55 E5.22006
G1 X99.20 Y83.64 E5.22631
G1 X100.73 Y85.13 E5.33275
G1 X100.84 Y85.25 E5.34123
G1 X102.70 Y87.50 E5.48669
G1 X102.78 Y87.61 E5.49330
G1 X103.72 Y88.96 E5.57571
G1 X103.80 Y89.08 E5.58254
G1 X104.29 Y89.93 E5.63165
G1 X104.36 Y90.07 E5.63946
G1 X104.99 Y91.46 E5.71575
G1 X105.03 Y91.56 E5.72074
G1 X105.13 Y91.83 E5.73536
G1 X105.16 Y91.91 E5.73962
G1 X105.43 Y92.76 E5.78394
G1 X105.47 Y92.92 E5.79229
G1 X105.72 Y94.09 E5.85206
G1 X105.75 Y94.31 E5.86314
G1 X105.78 Y94.86 E5.89059
G1 X105.79 Y95.03 E5.89932
G1 X105.77 Y95.50 E5.92269
G1 X105.73 Y95.76 E5.93556
G1 X105.64 Y96.20 E5.95783
G1 X105.59 Y96.37 E5.96698
G1 X105.48 Y96.73 E5.98569
G1 X105.37 Y96.98 E5.99946
G1 X105.07 Y97.55 E6.03133
G1 X104.77 Y97.94 E6.05595
G1 X104.31 Y98.39 E6.08816
G1 X104.07 Y98.58 E6.10307
G1 X103.63 Y98.88 E6.12991
G1 X103.33 Y99.03 E6.14671
G1 X102.83 Y99.22 E6.17315
G1 X102.54 Y99.31 E6.18857
G1 X102.10 Y99.39 E6.21058
G1 X101.94 Y99.41 E6.21879
G1 X101.62 Y99.44 E6.23475
G1 X101.47 Y99.44 E6.24219
G1 X101.07 Y99.44 E6.26235
G1 X100.85 Y99.42 E6.27336
G1 X100.28 Y99.33 E6.30223
G1 X100.06 Y99.28 E6.31327
G1 X99.42 Y99.09 E6.34679
G1 X99.25 Y99.03 E6.35529
G1 X98.45 Y98.70 E6.39871
G1 X98.27 Y98.61 E6.40889
G1 X97.42 Y98.11 E6.45808
G1 X97.26 Y98.01 E6.46745
G1 X96.14 Y97.17 E6.53722
G1 X95.98 Y97.04 E6.54734
G1 X94.88 Y95.98 E6.62363
G1 X95.20 Y97.51 E6.70133
G1 X95.23 Y97.70 E6.71106
G1 X95.30 Y98.52 E6.75232
G1 X95.30 Y98.79 E6.76559
G1 X95.23 Y99.53 E6.80279
G1 X95.19 Y99.81 E6.81672
G1 X95.07 Y100.25 E6.83956
G1 X95.02 Y100.41 E6.84811
G1 X94.89 Y100.76 E6.86670
G1 X94.77 Y101.00 E6.87987
G1 X94.52 Y101.43 E6.90489
G1 X94.27 Y101.75 E6.92488
G1 X93.74 Y102.29 E6.96288
G1 X93.02 Y102.71 E7.00427
G1 X92.13 Y102.96 E7.05066
G1 X91.41 Y103.00 E7.08668
G1 X90.76 Y102.89 E7.11955
G1 X90.47 Y102.81 E7.13441
G1 X90.05 Y102.65 E7.15689
G1 X89.94 Y102.68 E7.16238
G1 X89.69 Y102.75 E7.17568
G1 X89.47 Y102.80 E7.18676
G1 X89.06 Y102.85 E7.20724
G1 X88.79 Y102.86 E7.22078
G1 X88.43 Y102.85 E7.23870
G1 X88.23 Y102.85 E7.24893
G1 X88.13 Y102.85 E7.25387
G1 X87.42 Y102.83 E7.28931
G1 X87.23 Y102.90 E7.29940
G1 X86.78 Y103.01 E7.32217
G1 X86.31 Y103.05 E7.34593
G1 X85.69 Y103.02 E7.37691
G1 X85.24 Y102.93 E7.39989
G1 X84.90 Y102.81 E7.41783
G1 X84.73 Y102.74 E7.42725
G1 X84.36 Y102.56 E7.44775
G1 X84.05 Y102.36 E7.46630
G1 X83.61 Y102.00 E7.49412
G1 X82.31 Y103.78 E7.60400
G1 X82.23 Y103.88 E7.61067
G1 X81.16 Y105.11 E7.69197
G1 X81.06 Y105.22 E7.69920
G1 X80.05 Y106.19 E7.76942
G1 X79.96 Y106.27 E7.77493
G1 X78.28 Y107.67 E7.88449
G1 X78.19 Y107.74 E7.88983
G1 X76.65 Y108.86 E7.98493
G1 X76.51 Y108.95 E7.99340
G1 X75.12 Y109.76 E8.07357
G1 X74.95 Y109.84 E8.08310
G1 X73.58 Y110.43 E8.15717
G1 X73.45 Y110.47 E8.16394
G1 X72.86 Y110.67 E8.19521
G1 X72.77 Y110.70 E8.19965
G1 X72.12 Y110.87 E8.23340
G1 X71.98 Y110.90 E8.24045
G1 X71.06 Y111.07 E8.28742
G1 X70.81 Y111.09 E8.29991
G1 X70.12 Y111.11 E8.33434
G1 X69.86 Y111.09 E8.34693
G1 X69.41 Y111.03 E8.36995
G1 X69.20 Y110.99 E8.38075
G1 X68.68 Y110.84 E8.40743
G1 X68.29 Y110.67 E8.42884
G1 X67.66 Y110.30 E8.46535
G1 X67.35 Y110.06 E8.48497
G1 X66.97 Y109.67 E8.51185
G1 X66.80 Y109.48 E8.52467
G1 X66.52 Y109.09 E8.54843
G1 X66.33 Y108.75 E8.56808
G1 X66.08 Y108.10 E8.60283
G1 X65.98 Y107.73 E8.62202
G1 X65.89 Y107.13 E8.65230
G1 X65.88 Y106.83 E8.66698
G1 X65.91 Y106.09 E8.70409
G1 X65.95 Y105.79 E8.71920
G1 X66.15 Y104.98 E8.76069
G1 X66.22 Y104.76 E8.77232
G1 X66.53 Y103.97 E8.81491
G1 X66.63 Y103.77 E8.82605
G1 X67.29 Y102.61 E8.89212
G1 X67.40 Y102.44 E8.90260
G1 X68.23 Y101.35 E8.97110
G1 X68.34 Y101.22 E8.97945
G1 X69.39 Y100.11 E9.05541
G1 X69.41 Y100.09 E9.05696
G1 X69.66 Y99.83 E9.07488
G1 X68.17 Y100.06 E9.14983
G1 X68.04 Y100.07 E9.15671
G1 X67.03 Y100.14 E9.20705
G1 X66.94 Y100.14 E9.21169
G1 X66.33 Y100.15 E9.24218
G1 X66.25 Y100.14 E9.24607
G1 X64.94 Y100.09 E9.31143
G1 X64.84 Y100.08 E9.31609
G1 X62.52 Y99.85 E9.43261
G1 X62.39 Y99.83 E9.43906
G1 X60.44 Y99.48 E9.53795
G1 X60.28 Y99.44 E9.54631
G1 X59.27 Y99.14 E9.59886
G1 X59.13 Y99.09 E9.60614
G1 X57.85 Y98.59 E9.67461
G1 X57.69 Y98.51 E9.68390
G1 X56.37 Y97.81 E9.75829
G1 X56.20 Y97.71 E9.76805
G1 X55.62 Y97.30 E9.80360
G1 X55.50 Y97.20 E9.81149
G1 X55.02 Y96.78 E9.84314
G1 X54.88 Y96.65 E9.85270
G1 X54.58 Y96.32 E9.87492
G1 X54.38 Y96.05 E9.89184
G1 X53.98 Y95.35 E9.93206
G1 X53.83 Y95.02 E9.94993
G1 X53.71 Y94.63 E9.97032
G1 X53.66 Y94.41 E9.98150
G1 X53.60 Y94.04 E10.00036
G1 X53.58 Y93.78 E10.01332
G1 X53.58 Y93.36 E10.03433
G1 X53.60 Y93.08 E10.04819
G1 X53.68 Y92.61 E10.07226
G1 X53.78 Y92.27 E10.08977
G1 X54.02 Y91.69 E10.12142
G1 X54.19 Y91.39 E10.13823
G1 X54.52 Y90.90 E10.16811
G1 X54.72 Y90.67 E10.18319
G1 X55.11 Y90.28 E10.21074
G1 X55.28 Y90.14 E10.22160
G1 X55.75 Y89.78 E10.25122
G1 X55.90 Y89.68 E10.26007
G1 X56.36 Y89.41 E10.28644
G1 X56.50 Y89.34 E10.29471
G1 X57.05 Y89.09 E10.32470
G1 X57.16 Y89.04 E10.33042
G1 X57.48 Y88.93 E10.34735
G1 X57.58 Y88.89 E10.35303
G1 X58.57 Y88.60 E10.40453
G1 X58.78 Y88.56 E10.41486
G1 X60.02 Y88.36 E10.47778
G1 X60.17 Y88.34 E10.48517
G1 X61.14 Y88.28 E10.53380
G1 X61.23 Y88.28 E10.53800
G1 X62.21 Y88.27 E10.58724
G1 X62.24 Y88.27 E10.58884
G1 X62.44 Y88.27 E10.59837
G1 X60.93 Y87.12 E10.69297
G1 X60.79 Y87.01 E10.70193
G1 X59.69 Y85.95 E10.77797
G1 X59.57 Y85.83 E10.78623
G1 X57.50 Y83.41 E10.94545
G1 X57.43 Y83.32 E10.95113
G1 X56.77 Y82.42 E11.00680
G1 X56.70 Y82.32 E11.01273
G1 X55.83 Y80.93 E11.09457
G1 X55.74 Y80.77 E11.10371
G1 X55.13 Y79.48 E11.17514
G1 X55.06 Y79.32 E11.18366
G1 X54.62 Y78.07 E11.24968
G1 X54.57 Y77.89 E11.25877
G1 X54.33 Y76.84 E11.31292
G1 X54.30 Y76.64 E11.32283
G1 X54.23 Y75.92 E11.35918
G1 X54.22 Y75.70 E11.37001
G1 X54.23 Y75.29 E11.39043
G1 X54.24 Y75.15 E11.39758
G1 X54.29 Y74.81 E11.41433
G1 X54.33 Y74.60 E11.42542
G1 X54.46 Y74.10 E11.45110
G1 X54.57 Y73.82 E11.46574
G1 X54.77 Y73.41 E11.48885
G1 X54.89 Y73.19 E11.50144
G1 X55.17 Y72.79 E11.52562
G1 X55.41 Y72.52 E11.54354
G1 X55.79 Y72.17 E11.56950
G1 F2400 E7.06950
G0 F3600 X58.17 Y75.14
;TYPE:WALL-INNER
G1 F2400 E11.56950
G1 F1200 X58.26 Y75.09 E11.57455
G1 X58.60 Y75.01 E11.59203
G1 X58.62 Y75.01 E11.59313
G1 X58.78 Y75.02 E11.60117
G1 X58.94 Y75.04 E11.60931
G1 X59.42 Y75.17 E11.63414
G1 X60.41 Y75.65 E11.68905
G1 X61.34 Y76.31 E11.74603
G1 X64.34 Y79.16 E11.95199
G1 X65.00 Y79.63 E11.99240
G1 X65.42 Y79.85 E12.01625
G1 X65.83 Y80.00 E12.03806
G1 X66.13 Y80.08 E12.05343
G1 X66.57 Y80.15 E12.07591
G1 X66.99 Y80.17 E12.09679
G1 X67.41 Y80.13 E12.11771
G1 X67.74 Y80.06 E12.13446
G1 X68.06 Y79.93 E12.15183
G1 X68.46 Y79.69 E12.17500
G1 X68.70 Y79.49 E12.19074
G1 X68.92 Y79.24 E12.20725
G1 X69.18 Y78.81 E12.23229
G1 X69.34 Y78.41 E12.25372
G1 X69.43 Y78.04 E12.27302
G1 X69.51 Y77.48 E12.30083
G1 X69.54 Y76.88 E12.33115
G1 X69.53 Y76.60 E12.34512
G1 X69.53 Y76.51 E12.34931
G1 X69.53 Y76.48 E12.35091
G1 X69.46 Y75.68 E12.39124
G1 X69.08 Y73.35 E12.50880
G1 X68.99 Y72.30 E12.56131
G1 X68.98 Y71.74 E12.58945
G1 X69.19 Y68.78 E12.73743
G1 X69.53 Y66.71 E12.84192
G1 X69.81 Y65.73 E12.89289
G1 X70.32 Y64.48 E12.96029
G1 X70.79 Y63.61 E13.00947
G1 X71.06 Y63.23 E13.03278
G1 X71.35 Y62.92 E13.05420
G1 X71.55 Y62.77 E13.06639
G1 X71.62 Y62.73 E13.07039
G1 X71.74 Y62.70 E13.07681
G1 X71.84 Y62.71 E13.08186
G1 X71.89 Y62.73 E13.08451
G1 X72.00 Y62.77 E13.09012
G1 X72.09 Y62.84 E13.09583
G1 X72.31 Y63.06 E13.11139
G1 X72.52 Y63.38 E13.13064
G1 X72.82 Y64.05 E13.16704
G1 X73.04 Y64.85 E13.20866
G1 X73.19 Y65.76 E13.25441
G1 X73.25 Y66.72 E13.30277
G1 X73.26 Y67.44 E13.33819
G1 X73.24 Y68.85 E13.40864
G1 X73.27 Y69.84 E13.45831
G1 X73.42 Y70.71 E13.50235
G1 X73.66 Y71.36 E13.53681
G1 X73.69 Y71.41 E13.53971
G1 X74.04 Y71.97 E13.57260
G1 X74.56 Y72.54 E13.61138
G1 X74.93 Y72.83 E13.63455
G1 X75.20 Y72.99 E13.65015
G1 X75.49 Y73.12 E13.66608
G1 X75.79 Y73.20 E13.68168
G1 X76.18 Y73.23 E13.70113
G1 X76.63 Y73.18 E13.72376
G1 X76.94 Y73.08 E13.73969
G1 X77.39 Y72.86 E13.76494
G1 X77.99 Y72.44 E13.80144
G1 X78.77 Y71.72 E13.85425
G1 X79.44 Y70.92 E13.90648
G1 X80.98 Y68.83 E14.03591
G1 X82.13 Y67.62 E14.11924
G1 X83.93 Y66.07 E14.23765
G1 X84.95 Y65.30 E14.30160
G1 X86.09 Y64.56 E14.36943
G1 X87.16 Y64.02 E14.42916
G1 X87.90 Y63.73 E14.46878
G1 X89.23 Y63.37 E14.53744
G1 X89.48 Y63.34 E14.55015
G1 X89.66 Y63.34 E14.55924
G1 X89.97 Y63.38 E14.57481
G1 X90.07 Y63.42 E14.57984
G1 X90.14 Y63.46 E14.58433
G1 X90.22 Y63.53 E14.58953
G1 X90.26 Y63.60 E14.59346
G1 X90.31 Y63.77 E14.60197
G1 X90.32 Y63.98 E14.61245
G1 X90.30 Y64.20 E14.62385
G1 X90.24 Y64.50 E14.63882
G1 X90.07 Y64.97 E14.66383
G1 X89.47 Y66.05 E14.72574
G1 X88.58 Y67.16 E14.79653
G1 X86.13 Y69.71 E14.97302
G1 X85.77 Y70.22 E15.00403
G1 X85.52 Y70.66 E15.02940
G1 X85.32 Y71.18 E15.05724
G1 X85.23 Y71.52 E15.07466
G1 X85.17 Y72.09 E15.10351
G1 X85.16 Y72.38 E15.11798
G1 X85.20 Y72.79 E15.13820
G1 X85.34 Y73.26 E15.16275
G1 X85.42 Y73.45 E15.17298
G1 X85.58 Y73.71 E15.18827
G1 X85.76 Y73.94 E15.20275
G1 X86.02 Y74.19 E15.22091
G1 X86.24 Y74.35 E15.23454
G1 X86.50 Y74.50 E15.24946
G1 X86.91 Y74.66 E15.27132
G1 X87.68 Y74.81 E15.31024
G1 X88.38 Y74.86 E15.34563
G1 X88.92 Y74.85 E15.37248
G1 X90.15 Y74.70 E15.43435
G1 X92.46 Y74.34 E15.55078
G1 X93.28 Y74.30 E15.59179
G1 X93.77 Y74.30 E15.61594
G1 X95.53 Y74.40 E15.70414
G1 X97.74 Y74.67 E15.81519
G1 X99.01 Y74.95 E15.88029
G1 X100.21 Y75.36 E15.94320
G1 X101.41 Y75.94 E16.00967
G1 X101.89 Y76.24 E16.03820
G1 X102.35 Y76.61 E16.06735
G1 X102.49 Y76.76 E16.07766
G1 X102.56 Y76.87 E16.08412
G1 X102.60 Y76.94 E16.08831
G1 X102.62 Y77.03 E16.09278
G1 X102.61 Y77.20 E16.10119
G1 X102.51 Y77.37 E16.11112
G1 X102.42 Y77.47 E16.11777
G1 X102.28 Y77.60 E16.12745
G1 X102.05 Y77.77 E16.14158
G1 X101.47 Y78.06 E16.17380
G1 X100.50 Y78.36 E16.22459
G1 X99.26 Y78.54 E16.28690
G1 X98.29 Y78.58 E16.33564
G1 X96.37 Y78.56 E16.43123
G1 X95.55 Y78.58 E16.47236
G1 X94.88 Y78.68 E16.50586
G1 X94.22 Y78.88 E16.54025
G1 X93.78 Y79.09 E16.56480
G1 X93.27 Y79.44 E16.59586
G1 X92.89 Y79.78 E16.62116
G1 X92.86 Y79.82 E16.62356
G1 X92.44 Y80.35 E16.65753
G1 X92.22 Y80.79 E16.68187
G1 X92.14 Y81.05 E16.69545
G1 X92.11 Y81.27 E16.70658
G1 X92.09 Y81.47 E16.71653
G1 X92.12 Y81.79 E16.73239
G1 X92.19 Y82.12 E16.74932
G1 X92.32 Y82.45 E16.76689
G1 X92.66 Y83.02 E16.80022
G1 X93.25 Y83.74 E16.84668
G1 X94.03 Y84.47 E16.90023
