;Generated with Cura_SteamEngine 1.0
M140 S70.000000
M109 T0 S220.000000
T0
M190 S70.000000
;Sliced at: Fri 17-04-2015 19:31:16
;Basic settings: Layer height: 0.2 Walls: 0.8 Fill: 20
;Print time: #P_TIME#
;Filament used: #F_AMNT#m #F_WGHT#g
;Filament cost: #F_COST#
;M190 S70 ;Uncomment to add your own bed temperature line
;M109 S220 ;Uncomment to add your own temperature line
G21        ;metric values
G90        ;absolute positioning
M107       ;start with the fan off
G28 X0 Y0  ;move X/Y to min endstops
G28 Z0     ;move Z to min endstops
G1 Z15.0 F9000 ;move the platform down 15mm
G92 E0                  ;zero the extruded length
G1 F200 E3              ;extrude 3mm of feed stock
G92 E0                  ;zero the extruded length again
G1 F9000
;Put printing message on LCD screen
M117 Printing...

;total_layers=176
;LAYER:0
M107
G0 F3600 X55.79 Y72.17 Z0.30
;TYPE:SKIRT
G1 F1200 X56.09 Y71.95 E0.00688
G1 X56.66 Y71.63 E0.01928
G1 X57.08 Y71.47 E0.02774
G1 X57.92 Y71.27 E0.04396
G1 X58.21 Y71.23 E0.04953
G1 X58.53 Y71.21 E0.05561
G1 X58.67 Y71.21 E0.05828
G1 X59.03 Y71.22 E0.06491
G1 X59.15 Y71.23 E0.06721
G1 X59.56 Y71.28 E0.07492
G1 X59.80 Y71.33 E0.07967
G1 X60.65 Y71.57 E0.09611
G1 X60.91 Y71.67 E0.10152
G1 X62.24 Y72.32 E0.12921
G1 X62.45 Y72.45 E0.13399
G1 X63.50 Y73.18 E0.15800
G1 X63.55 Y73.22 E0.15918
G1 X63.73 Y73.35 E0.16337
G1 X63.83 Y73.44 E0.16596
G1 X65.14 Y74.63 E0.19920
G1 X65.18 Y74.67 E0.20029
G1 X65.49 Y74.97 E0.20846
G1 X65.31 Y73.88 E0.22926
G1 X65.30 Y73.75 E0.23172
G1 X65.20 Y72.54 E0.25456
G1 X65.19 Y72.44 E0.25648
G1 X65.18 Y71.70 E0.27031
G1 X65.18 Y71.57 E0.27292
G1 X65.40 Y68.42 E0.33234
G1 X65.42 Y68.26 E0.33522
G1 X65.80 Y65.97 E0.37894
G1 X65.84 Y65.80 E0.38230
G1 X66.19 Y64.57 E0.40619
G1 X66.24 Y64.41 E0.40952
G1 X66.84 Y62.94 E0.43936
G1 X66.92 Y62.78 E0.44268
G1 X67.51 Y61.69 E0.46593
G1 X67.60 Y61.54 E0.46922
G1 X68.03 Y60.93 E0.48330
G1 X68.18 Y60.74 E0.48783
G1 X68.72 Y60.17 E0.50261
G1 X68.93 Y59.98 E0.50786
G1 X69.42 Y59.61 E0.51956
G1 X69.65 Y59.47 E0.52453
G1 X70.10 Y59.24 E0.53413
G1 X70.45 Y59.11 E0.54108
G1 X71.01 Y58.97 E0.55192
G1 X71.25 Y58.93 E0.55644
G1 X71.54 Y58.90 E0.56194
G1 X71.80 Y58.90 E0.56683
G1 X72.34 Y58.93 E0.57703
G1 X72.68 Y59.00 E0.58365
G1 X73.14 Y59.13 E0.59267
G1 X73.39 Y59.23 E0.59759
G1 X73.79 Y59.42 E0.60605
G1 X73.99 Y59.54 E0.61039
G1 X74.39 Y59.81 E0.61947
G1 X74.63 Y60.00 E0.62519
G1 X75.15 Y60.53 E0.63920
G1 X75.36 Y60.79 E0.64547
G1 X75.80 Y61.45 E0.66042
G1 X75.92 Y61.68 E0.66527
G1 X76.36 Y62.66 E0.68544
G1 X76.44 Y62.87 E0.68976
G1 X76.74 Y63.95 E0.71077
G1 X76.78 Y64.13 E0.71433
G1 X76.95 Y65.26 E0.73584
G1 X76.97 Y65.40 E0.73847
G1 X77.05 Y66.53 E0.75963
G1 X77.05 Y66.62 E0.76144
G1 X77.06 Y67.42 E0.77648
G1 X77.06 Y67.46 E0.77716
G1 X77.05 Y67.74 E0.78250
G1 X77.61 Y66.97 E0.80035
G1 X77.66 Y66.91 E0.80175
G1 X78.07 Y66.39 E0.81432
G1 X78.16 Y66.29 E0.81684
G1 X79.44 Y64.93 E0.85189
G1 X79.56 Y64.82 E0.85504
G1 X81.50 Y63.15 E0.90326
G1 X81.58 Y63.08 E0.90522
G1 X82.73 Y62.22 E0.93216
G1 X82.82 Y62.16 E0.93424
G1 X84.11 Y61.31 E0.96333
G1 X84.26 Y61.23 E0.96645
G1 X85.53 Y60.58 E0.99330
G1 X85.68 Y60.51 E0.99634
G1 X86.63 Y60.14 E1.01566
G1 X86.80 Y60.09 E1.01902
G1 X88.40 Y59.66 E1.05016
G1 X88.63 Y59.62 E1.05447
G1 X89.13 Y59.56 E1.06405
G1 X89.27 Y59.55 E1.06662
G1 X89.73 Y59.53 E1.07537
G1 X90.01 Y59.55 E1.08063
G1 X90.74 Y59.65 E1.09435
G1 X91.05 Y59.73 E1.10043
G1 X91.53 Y59.91 E1.11011
G1 X91.79 Y60.02 E1.11538
G1 X92.18 Y60.25 E1.12389
G1 X92.39 Y60.39 E1.12858
G1 X92.73 Y60.66 E1.13680
G1 X92.94 Y60.86 E1.14225
G1 X93.25 Y61.22 E1.15113
G1 X93.44 Y61.50 E1.15751
G1 X93.70 Y61.98 E1.16775
G1 X93.83 Y62.29 E1.17409
G1 X93.97 Y62.74 E1.18303
G1 X94.01 Y62.88 E1.18582
G1 X94.06 Y63.18 E1.19145
G1 X94.09 Y63.42 E1.19613
G1 X94.12 Y63.92 E1.20554
G1 X94.11 Y64.09 E1.20866
G1 X94.08 Y64.60 E1.21829
G1 X94.05 Y64.85 E1.22304
G1 X93.92 Y65.45 E1.23456
G1 X93.86 Y65.64 E1.23834
G1 X93.59 Y66.41 E1.25372
G1 X93.48 Y66.65 E1.25866
G1 X92.70 Y68.06 E1.28894
G1 X92.55 Y68.28 E1.29391
G1 X91.49 Y69.61 E1.32592
G1 X91.39 Y69.72 E1.32875
G1 X90.33 Y70.83 E1.35755
G1 X91.99 Y70.57 E1.38923
G1 X92.15 Y70.56 E1.39224
G1 X93.14 Y70.50 E1.41087
G1 X93.22 Y70.50 E1.41230
G1 X93.82 Y70.50 E1.42358
G1 X93.92 Y70.50 E1.42543
G1 X95.81 Y70.61 E1.46119
G1 X95.92 Y70.62 E1.46315
G1 X98.31 Y70.92 E1.50843
G1 X98.45 Y70.94 E1.51116
G1 X99.94 Y71.27 E1.53989
G1 X100.12 Y71.31 E1.54328
G1 X101.56 Y71.80 E1.57186
G1 X101.74 Y71.88 E1.57559
G1 X103.17 Y72.57 E1.60554
G1 X103.32 Y72.65 E1.60881
G1 X104.02 Y73.09 E1.62427
G1 X104.18 Y73.20 E1.62802
G1 X104.86 Y73.76 E1.64445
G1 X105.02 Y73.90 E1.64852
G1 X105.38 Y74.29 E1.65852
G1 X105.54 Y74.49 E1.66330
G1 X105.79 Y74.87 E1.67183
G1 X105.91 Y75.06 E1.67603
G1 X106.10 Y75.45 E1.68423
G1 X106.20 Y75.71 E1.68945
G1 X106.35 Y76.24 E1.69984
G1 X106.41 Y76.61 E1.70686
G1 X106.43 Y76.93 E1.71285
G1 X106.42 Y77.11 E1.71620
G1 X106.38 Y77.71 E1.72762
G1 X106.31 Y78.11 E1.73534
G1 X106.14 Y78.62 E1.74531
G1 X106.00 Y78.94 E1.75187
G1 X105.67 Y79.48 E1.76372
G1 X105.51 Y79.70 E1.76887
G1 X105.21 Y80.05 E1.77758
G1 X105.07 Y80.20 E1.78148
G1 X104.73 Y80.50 E1.78990
G1 X104.61 Y80.59 E1.79281
G1 X104.16 Y80.93 E1.80345
G1 X103.94 Y81.07 E1.80833
G1 X103.03 Y81.53 E1.82746
G1 X102.77 Y81.64 E1.83286
G1 X101.44 Y82.04 E1.85894
G1 X101.21 Y82.09 E1.86346
G1 X99.70 Y82.31 E1.89202
G1 X99.54 Y82.33 E1.89512
G1 X98.38 Y82.38 E1.91702
G1 X98.29 Y82.38 E1.91854
G1 X97.58 Y82.37 E1.93188
G1 X98.43 Y82.99 E1.95165
G1 X98.51 Y83.05 E1.95345
G1 X99.11 Y83.55 E1.96817
G1 X99.20 Y83.64 E1.97052
G1 X100.73 Y85.13 E2.01066
G1 X100.84 Y85.25 E2.01385
G1 X102.70 Y87.50 E2.06870
G1 X102.78 Y87.61 E2.07119
G1 X103.72 Y88.96 E2.10226
G1 X103.80 Y89.08 E2.10484
G1 X104.29 Y89.93 E2.12335
G1 X104.36 Y90.07 E2.12630
G1 X104.99 Y91.46 E2.15506
G1 X105.03 Y91.56 E2.15694
G1 X105.13 Y91.83 E2.16245
G1 X105.16 Y91.91 E2.16406
G1 X105.43 Y92.76 E2.18077
G1 X105.47 Y92.92 E2.18392
G1 X105.72 Y94.09 E2.20646
G1 X105.75 Y94.31 E2.21063
G1 X105.78 Y94.86 E2.22098
G1 X105.79 Y95.03 E2.22427
G1 X105.77 Y95.50 E2.23309
G1 X105.73 Y95.76 E2.23794
G1 X105.64 Y96.20 E2.24633
G1 X105.59 Y96.37 E2.24978
G1 X105.48 Y96.73 E2.25684
G1 X105.37 Y96.98 E2.26203
G1 X105.07 Y97.55 E2.27405
G1 X104.77 Y97.94 E2.28333
G1 X104.31 Y98.39 E2.29548
G1 X104.07 Y98.58 E2.30109
G1 X103.63 Y98.88 E2.31122
G1 X103.33 Y99.03 E2.31755
G1 X102.83 Y99.22 E2.32752
G1 X102.54 Y99.31 E2.33333
G1 X102.10 Y99.39 E2.34163
G1 X101.94 Y99.41 E2.34473
G1 X101.62 Y99.44 E2.35074
G1 X101.47 Y99.44 E2.35355
G1 X101.07 Y99.44 E2.36115
G1 X100.85 Y99.42 E2.36530
G1 X100.28 Y99.33 E2.37619
G1 X100.06 Y99.28 E2.38035
G1 X99.42 Y99.09 E2.39299
G1 X99.25 Y99.03 E2.39619
G1 X98.45 Y98.70 E2.41256
G1 X98.27 Y98.61 E2.41640
G1 X97.42 Y98.11 E2.43495
G1 X97.26 Y98.01 E2.43848
G1 X96.14 Y97.17 E2.46479
G1 X95.98 Y97.04 E2.46860
G1 X94.88 Y95.98 E2.49737
G1 X95.20 Y97.51 E2.52666
G1 X95.23 Y97.70 E2.53033
G1 X95.30 Y98.52 E2.54589
G1 X95.30 Y98.79 E2.55089
G1 X95.23 Y99.53 E2.56492
G1 X95.19 Y99.81 E2.57017
G1 X95.07 Y100.25 E2.57878
G1 X95.02 Y100.41 E2.58201
G1 X94.89 Y100.76 E2.58901
G1 X94.77 Y101.00 E2.59398
G1 X94.52 Y101.43 E2.60341
G1 X94.27 Y101.75 E2.61095
G1 X93.74 Y102.29 E2.62528
G1 X93.02 Y102.71 E2.64088
G1 X92.13 Y102.96 E2.65838
G1 X91.41 Y103.00 E2.67196
G1 X90.76 Y102.89 E2.68435
G1 X90.47 Y102.81 E2.68995
G1 X90.05 Y102.65 E2.69843
G1 X89.94 Y102.68 E2.70050
G1 X89.69 Y102.75 E2.70551
G1 X89.47 Y102.80 E2.70969
G1 X89.06 Y102.85 E2.71741
G1 X88.79 Y102.86 E2.72251
G1 X88.43 Y102.85 E2.72927
G1 X88.23 Y102.85 E2.73313
G1 X88.13 Y102.85 E2.73499
G1 X87.42 Y102.83 E2.74836
G1 X87.23 Y102.90 E2.75216
G1 X86.78 Y103.01 E2.76074
G1 X86.31 Y103.05 E2.76970
G1 X85.69 Y103.02 E2.78138
G1 X85.24 Y102.93 E2.79005
G1 X84.90 Y102.81 E2.79681
G1 X84.73 Y102.74 E2.80036
G1 X84.36 Y102.56 E2.80809
G1 X84.05 Y102.36 E2.81509
G1 X83.61 Y102.00 E2.82558
G1 X82.31 Y103.78 E2.86700
G1 X82.23 Y103.88 E2.86952
G1 X81.16 Y105.11 E2.90017
G1 X81.06 Y105.22 E2.90290
G1 X80.05 Y106.19 E2.92938
G1 X79.96 Y106.27 E2.93145
G1 X78.28 Y107.67 E2.97276
G1 X78.19 Y107.74 E2.97477
G1 X76.65 Y108.86 E3.01063
G1 X76.51 Y108.95 E3.01382
G1 X75.12 Y109.76 E3.04405
G1 X74.95 Y109.84 E3.04764
G1 X73.58 Y110.43 E3.07557
G1 X73.45 Y110.47 E3.07813
G1 X72.86 Y110.67 E3.08992
G1 X72.77 Y110.70 E3.09159
G1 X72.12 Y110.87 E3.10431
G1 X71.98 Y110.90 E3.10697
G1 X71.06 Y111.07 E3.12468
G1 X70.81 Y111.09 E3.12939
G1 X70.12 Y111.11 E3.14237
G1 X69.86 Y111.09 E3.14712
G1 X69.41 Y111.03 E3.15580
G1 X69.20 Y110.99 E3.15987
G1 X68.68 Y110.84 E3.16993
G1 X68.29 Y110.67 E3.17800
G1 X67.66 Y110.30 E3.19177
G1 X67.35 Y110.06 E3.19917
G1 X66.97 Y109.67 E3.20930
G1 X66.80 Y109.48 E3.21413
G1 X66.52 Y109.09 E3.22309
G1 X66.33 Y108.75 E3.23050
G1 X66.08 Y108.10 E3.24360
G1 X65.98 Y107.73 E3.25084
G1 X65.89 Y107.13 E3.26225
G1 X65.88 Y106.83 E3.26779
G1 X65.91 Y106.09 E3.28178
G1 X65.95 Y105.79 E3.28748
G1 X66.15 Y104.98 E3.30312
G1 X66.22 Y104.76 E3.30751
G1 X66.53 Y103.97 E3.32357
G1 X66.63 Y103.77 E3.32776
G1 X67.29 Y102.61 E3.35268
G1 X67.40 Y102.44 E3.35663
G1 X68.23 Y101.35 E3.38245
G1 X68.34 Y101.22 E3.38560
G1 X69.39 Y100.11 E3.41424
G1 X69.41 Y100.09 E3.41483
G1 X69.66 Y99.83 E3.42159
G1 X68.17 Y100.06 E3.44984
G1 X68.04 Y100.07 E3.45244
G1 X67.03 Y100.14 E3.47142
G1 X66.94 Y100.14 E3.47317
G1 X66.33 Y100.15 E3.48466
G1 X66.25 Y100.14 E3.48613
G1 X64.94 Y100.09 E3.51077
G1 X64.84 Y100.08 E3.51253
G1 X62.52 Y99.85 E3.55646
G1 X62.39 Y99.83 E3.55889
G1 X60.44 Y99.48 E3.59618
G1 X60.28 Y99.44 E3.59933
G1 X59.27 Y99.14 E3.61915
G1 X59.13 Y99.09 E3.62189
G1 X57.85 Y98.59 E3.64771
G1 X57.69 Y98.51 E3.65121
G1 X56.37 Y97.81 E3.67926
G1 X56.20 Y97.71 E3.68294
G1 X55.62 Y97.30 E3.69634
G1 X55.50 Y97.20 E3.69931
G1 X55.02 Y96.78 E3.71125
G1 X54.88 Y96.65 E3.71485
G1 X54.58 Y96.32 E3.72323
G1 X54.38 Y96.05 E3.72961
G1 X53.98 Y95.35 E3.74477
G1 X53.83 Y95.02 E3.75151
G1 X53.71 Y94.63 E3.75920
G1 X53.66 Y94.41 E3.76342
G1 X53.60 Y94.04 E3.77053
G1 X53.58 Y93.78 E3.77541
G1 X53.58 Y93.36 E3.78333
G1 X53.60 Y93.08 E3.78856
G1 X53.68 Y92.61 E3.79764
G1 X53.78 Y92.27 E3.80424
G1 X54.02 Y91.69 E3.81617
G1 X54.19 Y91.39 E3.82251
G1 X54.52 Y90.90 E3.83377
G1 X54.72 Y90.67 E3.83946
G1 X55.11 Y90.28 E3.84985
G1 X55.28 Y90.14 E3.85394
G1 X55.75 Y89.78 E3.86511
G1 X55.90 Y89.68 E3.86845
G1 X56.36 Y89.41 E3.87839
G1 X56.50 Y89.34 E3.88151
G1 X57.05 Y89.09 E3.89282
G1 X57.16 Y89.04 E3.89497
G1 X57.48 Y88.93 E3.90135
G1 X57.58 Y88.89 E3.90350
G1 X58.57 Y88.60 E3.92291
G1 X58.78 Y88.56 E3.92681
G1 X60.02 Y88.36 E3.95053
G1 X60.17 Y88.34 E3.95332
G1 X61.14 Y88.28 E3.97166
G1 X61.23 Y88.28 E3.97324
G1 X62.21 Y88.27 E3.99180
G1 X62.24 Y88.27 E3.99241
G1 X62.44 Y88.27 E3.99600
G1 X60.93 Y87.12 E4.03167
G1 X60.79 Y87.01 E4.03505
G1 X59.69 Y85.95 E4.06372
G1 X59.57 Y85.83 E4.06683
G1 X57.50 Y83.41 E4.12686
G1 X57.43 Y83.32 E4.12900
G1 X56.77 Y82.42 E4.14999
G1 X56.70 Y82.32 E4.15223
G1 X55.83 Y80.93 E4.18309
G1 X55.74 Y80.77 E4.18653
G1 X55.13 Y79.48 E4.21346
G1 X55.06 Y79.32 E4.21668
G1 X54.62 Y78.07 E4.24157
G1 X54.57 Y77.89 E4.24500
G1 X54.33 Y76.84 E4.26541
G1 X54.30 Y76.64 E4.26915
G1 X54.23 Y75.92 E4.28285
G1 X54.22 Y75.70 E4.28694
G1 X54.23 Y75.29 E4.29464
G1 X54.24 Y75.15 E4.29733
G1 X54.29 Y74.81 E4.30365
G1 X54.33 Y74.60 E4.30783
G1 X54.46 Y74.10 E4.31751
G1 X54.57 Y73.82 E4.32303
G1 X54.77 Y73.41 E4.33175
G1 X54.89 Y73.19 E4.33649
G1 X55.17 Y72.79 E4.34561
G1 X55.41 Y72.52 E4.35237
G1 X55.79 Y72.17 E4.36215
G1 F2400 E-0.13785
G0 F3600 X58.17 Y75.14
;TYPE:WALL-INNER
G1 F2400 E4.36215
G1 F1200 X58.26 Y75.09 E4.36406
G1 X58.60 Y75.01 E4.37065
G1 X58.62 Y75.01 E4.37106
G1 X58.78 Y75.02 E4.37409
G1 X58.94 Y75.04 E4.37716
G1 X59.42 Y75.17 E4.38652
G1 X60.41 Y75.65 E4.40723
G1 X61.34 Y76.31 E4.42871
G1 X64.34 Y79.16 E4.50637
G1 X65.00 Y79.63 E4.52160
G1 X65.42 Y79.85 E4.53060
G1 X65.83 Y80.00 E4.53882
G1 X66.13 Y80.08 E4.54462
G1 X66.57 Y80.15 E4.55309
G1 X66.99 Y80.17 E4.56096
G1 X67.41 Y80.13 E4.56885
G1 X67.74 Y80.06 E4.57516
G1 X68.06 Y79.93 E4.58171
G1 X68.46 Y79.69 E4.59045
G1 X68.70 Y79.49 E4.59639
G1 X68.92 Y79.24 E4.60261
G1 X69.18 Y78.81 E4.61205
G1 X69.34 Y78.41 E4.62013
G1 X69.43 Y78.04 E4.62741
G1 X69.51 Y77.48 E4.63789
G1 X69.54 Y76.88 E4.64932
G1 X69.53 Y76.60 E4.65459
G1 X69.53 Y76.51 E4.65617
G1 X69.53 Y76.48 E4.65678
G1 X69.46 Y75.68 E4.67198
G1 X69.08 Y73.35 E4.71631
G1 X68.99 Y72.30 E4.73610
G1 X68.98 Y71.74 E4.74671
G1 X69.19 Y68.78 E4.80251
G1 X69.53 Y66.71 E4.84191
G1 X69.81 Y65.73 E4.86112
G1 X70.32 Y64.48 E4.88654
G1 X70.79 Y63.61 E4.90508
G1 X71.06 Y63.23 E4.91387
G1 X71.35 Y62.92 E4.92194
G1 X71.55 Y62.77 E4.92654
G1 X71.62 Y62.73 E4.92805
G1 X71.74 Y62.70 E4.93047
G1 X71.84 Y62.71 E4.93237
G1 X71.89 Y62.73 E4.93337
G1 X72.00 Y62.77 E4.93549
G1 X72.09 Y62.84 E4.93764
G1 X72.31 Y63.06 E4.94351
G1 X72.52 Y63.38 E4.95076
G1 X72.82 Y64.05 E4.96449
G1 X73.04 Y64.85 E4.98018
G1 X73.19 Y65.76 E4.99743
G1 X73.25 Y66.72 E5.01566
G1 X73.26 Y67.44 E5.02902
G1 X73.24 Y68.85 E5.05558
G1 X73.27 Y69.84 E5.07431
G1 X73.42 Y70.71 E5.09091
G1 X73.66 Y71.36 E5.10391
G1 X73.69 Y71.41 E5.10500
G1 X74.04 Y71.97 E5.11740
G1 X74.56 Y72.54 E5.13202
G1 X74.93 Y72.83 E5.14076
G1 X75.20 Y72.99 E5.14664
G1 X75.49 Y73.12 E5.15265
G1 X75.79 Y73.20 E5.15853
G1 X76.18 Y73.23 E5.16586
G1 X76.63 Y73.18 E5.17440
G1 X76.94 Y73.08 E5.18040
G1 X77.39 Y72.86 E5.18992
G1 X77.99 Y72.44 E5.20368
G1 X78.77 Y71.72 E5.22359
G1 X79.44 Y70.92 E5.24329
G1 X80.98 Y68.83 E5.29209
G1 X82.13 Y67.62 E5.32350
G1 X83.93 Y66.07 E5.36815
G1 X84.95 Y65.30 E5.39226
G1 X86.09 Y64.56 E5.41784
G1 X87.16 Y64.02 E5.44036
G1 X87.90 Y63.73 E5.45529
G1 X89.23 Y63.37 E5.48118
G1 X89.48 Y63.34 E5.48598
G1 X89.66 Y63.34 E5.48940
G1 X89.97 Y63.38 E5.49527
G1 X90.07 Y63.42 E5.49717
G1 X90.14 Y63.46 E5.49886
G1 X90.22 Y63.53 E5.50082
G1 X90.26 Y63.60 E5.50230
G1 X90.31 Y63.77 E5.50551
G1 X90.32 Y63.98 E5.50947
G1 X90.30 Y64.20 E5.51376
G1 X90.24 Y64.50 E5.51941
G1 X90.07 Y64.97 E5.52884
G1 X89.47 Y66.05 E5.55218
G1 X88.58 Y67.16 E5.57887
G1 X86.13 Y69.71 E5.64541
G1 X85.77 Y70.22 E5.65711
G1 X85.52 Y70.66 E5.66667
G1 X85.32 Y71.18 E5.67717
G1 X85.23 Y71.52 E5.68374
G1 X85.17 Y72.09 E5.69461
G1 X85.16 Y72.38 E5.70007
G1 X85.20 Y72.79 E5.70769
G1 X85.34 Y73.26 E5.71695
G1 X85.42 Y73.45 E5.72081
G1 X85.58 Y73.71 E5.72657
G1 X85.76 Y73.94 E5.73203
G1 X86.02 Y74.19 E5.73888
G1 X86.24 Y74.35 E5.74402
G1 X86.50 Y74.50 E5.74964
G1 X86.91 Y74.66 E5.75789
G1 X87.68 Y74.81 E5.77256
G1 X88.38 Y74.86 E5.78590
G1 X88.92 Y74.85 E5.79603
G1 X90.15 Y74.70 E5.81935
G1 X92.46 Y74.34 E5.86325
G1 X93.28 Y74.30 E5.87872
G1 X93.77 Y74.30 E5.88782
G1 X95.53 Y74.40 E5.92108
G1 X97.74 Y74.67 E5.96294
G1 X99.01 Y74.95 E5.98749
G1 X100.21 Y75.36 E6.01121
G1 X101.41 Y75.94 E6.03627
G1 X101.89 Y76.24 E6.04703
G1 X102.35 Y76.61 E6.05802
G1 X102.49 Y76.76 E6.06190
G1 X102.56 Y76.87 E6.06434
G1 X102.60 Y76.94 E6.06592
G1 X102.62 Y77.03 E6.06761
G1 X102.61 Y77.20 E6.07078
G1 X102.51 Y77.37 E6.07452
G1 X102.42 Y77.47 E6.07703
G1 X102.28 Y77.60 E6.08068
G1 X102.05 Y77.77 E6.08601
G1 X101.47 Y78.06 E6.09815
G1 X100.50 Y78.36 E6.11730
G1 X99.26 Y78.54 E6.14080
G1 X98.29 Y78.58 E6.15917
G1 X96.37 Y78.56 E6.19522
G1 X95.55 Y78.58 E6.21072
G1 X94.88 Y78.68 E6.22335
G1 X94.22 Y78.88 E6.23632
G1 X93.78 Y79.09 E6.24558
G1 X93.27 Y79.44 E6.25729
G1 X92.89 Y79.78 E6.26683
G1 X92.86 Y79.82 E6.26773
G1 X92.44 Y80.35 E6.28054
G1 X92.22 Y80.79 E6.28972
G1 X92.14 Y81.05 E6.29484
G1 X92.11 Y81.27 E6.29903
G1 X92.09 Y81.47 E6.30278
G1 X92.12 Y81.79 E6.30876
G1 X92.19 Y82.12 E6.31515
G1 X92.32 Y82.45 E6.32177
G1 X92.66 Y83.02 E6.33434
G1 X93.25 Y83.74 E6.35186
G1 X94.03 Y84.47 E6.37205
G1 X96.12 Y86.02 E6.42089
G1 X96.61 Y86.42 E6.43281
G1 X97.99 Y87.77 E6.46906
G1 X99.70 Y89.84 E6.51969
G1 X100.55 Y91.06 E6.54760
G1 X100.94 Y91.73 E6.56221
G1 X101.50 Y92.98 E6.58790
G1 X101.55 Y93.11 E6.59056
G1 X101.78 Y93.81 E6.60446
G1 X101.97 Y94.71 E6.62169
G1 X101.98 Y95.00 E6.62710
G1 X101.98 Y95.16 E6.63017
G1 X101.93 Y95.36 E6.63405
